svg/size_xxs.svg

<svg xmlns="http://www.w3.org/2000/svg" viewBox="0 0 24 24"><path d="M9 7h2l1 2.5L13 7h2l-2 5 2 5h-2l-1-2.5-1 2.5H9l2-5zm9 0h4v2h-4v2h2a2 2 0 0 1 2 2v2c0 1.11-.89 2-2 2h-4v-2h4v-2h-2a2 2 0 0 1-2-2V9c0-1.1.9-2 2-2M2 7h2l1 2.5L6 7h2l-2 5 2 5H6l-1-2.5L4 17H2l2-5z"/></svg>

<?xml version="1.0" encoding="UTF-8"?><!DOCTYPE svg PUBLIC "-//W3C//DTD SVG 1.1//EN" "http://www.w3.org/Graphics/SVG/1.1/DTD/svg11.dtd"><svg xmlns="http://www.w3.org/2000/svg" xmlns:xlink="http://www.w3.org/1999/xlink" version="1.1" id="mdi-size-xxs" width="24" height="24" viewBox="0 0 24 24"><path d="M9 7H11L12 9.5L13 7H15L13 12L15 17H13L12 14.5L11 17H9L11 12L9 7M18 7H22V9H18V11H20C21.11 11 22 11.9 22 13V15C22 16.11 21.11 17 20 17H16V15H20V13H18C16.9 13 16 12.11 16 11V9C16 7.9 16.9 7 18 7M2 7H4L5 9.5L6 7H8L6 12L8 17H6L5 14.5L4 17H2L4 12L2 7Z" /></svg>
